X:63
T:Fantasie in G Major (TWV 33:2)
C:Telemann, G.P.
M:4/4
L:1/8
Q:1/4=80
K:G
|:D2|G4 AB c2|B2 AG F2 E2|D4 EF G2|A4 G2 F2|
E4 FG A2|G2 FE D2 C2|D4 CD E2|G4 G2:|

